zondicons/svg/screen-full.svg

<svg width="20px" height="20px" viewBox="0 0 20 20" version="1.1" xmlns="http://www.w3.org/2000/svg" xmlns:xlink="http://www.w3.org/1999/xlink"><title>screen-full</title><desc>Created with Sketch.</desc><defs></defs><g id="Page-1" stroke="none" stroke-width="1" fill="none" fill-rule="evenodd"><g id="screen-full" fill="#000000"><path d="M4.20710678,17.2071068 L7,20 L0,20 L0,13 L2.79289322,15.7928932 L7.12132034,11.4644661 L8.53553391,12.8786797 L4.20710678,17.2071068 Z M15.7928932,2.79289322 L13,0 L20,0 L20,7 L17.2071068,4.20710678 L12.8786797,8.53553391 L11.4644661,7.12132034 L15.7928932,2.79289322 Z M15.7928932,17.2071068 L13,20 L20,20 L20,13 L17.2071068,15.7928932 L12.8786797,11.4644661 L11.4644661,12.8786797 L15.7928932,17.2071068 Z M4.20710678,2.79289322 L7,0 L0,0 L0,7 L2.79289322,4.20710678 L7.12132034,8.53553391 L8.53553391,7.12132034 L4.20710678,2.79289322 Z" id="Combined-Shape"></path></g></g></svg>

<svg xmlns="http://www.w3.org/2000/svg" viewBox="0 0 20 20"><path d="M2.8 15.8L0 13v7h7l-2.8-2.8 4.34-4.32-1.42-1.42L2.8 15.8zM17.2 4.2L20 7V0h-7l2.8 2.8-4.34 4.32 1.42 1.42L17.2 4.2zm-1.4 13L13 20h7v-7l-2.8 2.8-4.32-4.34-1.42 1.42 4.33 4.33zM4.2 2.8L7 0H0v7l2.8-2.8 4.32 4.34 1.42-1.42L4.2 2.8z"/></svg>
